icons/folder-17.svg

<svg width="16" height="17" viewBox="0 0 16 17" fill="none" xmlns="http://www.w3.org/2000/svg">
<path fill-rule="evenodd" clip-rule="evenodd" d="M3.63636 3.80276C3.4917 3.80276 3.35296 3.86023 3.25067 3.96252C3.14838 4.06481 3.09091 4.20355 3.09091 4.34822V11.9846C3.09091 12.1292 3.14838 12.268 3.25067 12.3703C3.35296 12.4726 3.4917 12.53 3.63636 12.53H12.3636C12.5083 12.53 12.647 12.4726 12.7493 12.3703C12.8516 12.268 12.9091 12.1292 12.9091 11.9846V5.98458C12.9091 5.83992 12.8516 5.70118 12.7493 5.59889C12.647 5.49659 12.5083 5.43913 12.3636 5.43913H7.45455C7.27217 5.43913 7.10186 5.34798 7.0007 5.19623L6.07172 3.80276H3.63636ZM2.47928 3.19113C2.78616 2.88426 3.20237 2.71185 3.63636 2.71185H6.36364C6.54601 2.71185 6.71632 2.803 6.81748 2.95474L7.74646 4.34822H12.3636C12.7976 4.34822 13.2138 4.52062 13.5207 4.8275C13.8276 5.13437 14 5.55059 14 5.98458V11.9846C14 12.4186 13.8276 12.8348 13.5207 13.1417C13.2138 13.4485 12.7976 13.6209 12.3636 13.6209H3.63636C3.20237 13.6209 2.78616 13.4485 2.47928 13.1417C2.1724 12.8348 2 12.4186 2 11.9846V4.34822C2 3.91423 2.1724 3.49801 2.47928 3.19113Z" fill="#272431"/>
</svg>

<svg xmlns="http://www.w3.org/2000/svg" width="16" height="17" viewBox="0 0 16 17"><path fill-rule="evenodd" d="M3.636 3.803a.545.545 0 00-.545.545v7.637a.546.546 0 00.545.545h8.728a.545.545 0 00.545-.545v-6a.545.545 0 00-.545-.546h-4.91a.545.545 0 01-.453-.243l-.93-1.393H3.637zM2.48 3.19c.307-.307.723-.48 1.157-.48h2.728c.182 0 .352.092.453.244l.93 1.393h4.617A1.636 1.636 0 0114 5.985v6a1.636 1.636 0 01-1.636 1.636H3.636A1.637 1.637 0 012 11.985V4.348c0-.434.172-.85.48-1.157z"/></svg>
